packages/foundations/assets/icons/functional/images/transportation/train_and_car_28_inverted.svg

<svg width="28" height="28" viewBox="0 0 28 28" fill="none" xmlns="http://www.w3.org/2000/svg">
<g clip-path="url(#clip0_2214_6810)">
<path fill-rule="evenodd" clip-rule="evenodd" d="M21.8768 12.2496C22.743 12.2505 23.3503 12.8332 23.6084 13.6724L24.5 17.5005H25.683C25.977 17.5005 26.25 17.7341 26.25 18.0062V18.6476C26.25 18.9407 26.0216 19.2514 25.683 19.2505H24.9524C24.9813 19.3922 24.9961 19.583 24.9961 19.7195C24.9961 19.8105 24.8833 20.8237 24.6566 22.7575C24.6313 22.9789 24.5779 23.1924 24.5018 23.3927V25.3746C24.5009 25.8576 24.1089 26.2496 23.6259 26.2496H23.1009C22.6179 26.2496 22.2259 25.8576 22.2259 25.3746V25.0754C20.6509 25.2749 19.0759 25.3746 17.5009 25.3746C15.9259 25.3746 14.3509 25.2749 12.7759 25.0754V25.3746C12.7759 25.8576 12.3839 26.2496 11.9009 26.2496H11.3759C10.8929 26.2496 10.5009 25.8576 10.5009 25.3746V23.3954C10.4423 23.2422 10.3976 23.0821 10.3679 22.9167L10.0196 19.9382C9.9925 19.7029 10.0039 19.471 10.0485 19.2505H9.31875C8.995 19.2505 8.75175 18.9687 8.75175 18.6467V18.0631C8.75175 17.7402 8.995 17.4996 9.31875 17.4996H10.5017L11.3575 13.8132C11.5596 12.9479 12.2736 12.3144 13.1267 12.2496H21.8768ZM2.71425 19.975C3.58138 20.9436 4.6095 21.7915 6.20113 22.8362L6.70075 23.153C7.03237 23.3394 7.38062 23.454 7.875 23.5231C8.26 23.552 8.61963 23.5502 8.995 23.5669C9.002 23.5914 9.0055 23.6159 9.0125 23.6395V25.3755C9.0125 25.4997 9.02737 25.6205 9.04225 25.7404C9.04575 25.7649 9.04925 25.792 9.04925 25.8121C9.04925 26.0536 8.85325 26.2496 8.61175 26.2496H7.00087C6.51788 26.2496 6.12587 25.8576 6.12587 25.3746C6.12587 25.2959 6.13637 25.2189 6.15562 25.1462C5.46087 24.8977 4.844 24.4532 4.38812 23.8565C3.93225 23.2597 3.52887 22.551 3.28212 21.9805C3.192 21.7714 3.003 21.1029 2.71425 19.975ZM19.2561 20.7817L15.6319 20.7879C15.2933 20.8281 15.008 21.0617 14.903 21.3855L14.644 22.6805C14.6108 23.0839 14.8593 23.5135 15.3449 23.6089C15.8305 23.7042 16.2242 23.4059 16.3485 23.0217L16.4517 22.5317H18.5386L18.6427 23.0217C18.7775 23.4382 19.2063 23.6972 19.6464 23.6089C20.0865 23.5205 20.3831 23.1171 20.3472 22.6805L20.0882 21.3855C19.9719 21.0294 19.6385 20.7817 19.2561 20.7817ZM23.1175 20.1281L21.8234 20.3871C21.4069 20.5219 21.1479 20.9506 21.2362 21.3907C21.3246 21.8309 21.728 22.1275 22.1646 22.0916L23.4587 21.8326C23.8752 21.6979 24.1343 21.2691 24.0459 20.829C23.9575 20.3889 23.5541 20.0922 23.1175 20.1281ZM10.955 20.829C10.8666 21.2691 11.1256 21.6979 11.5421 21.8326L12.8363 22.0916C13.2729 22.1275 13.6762 21.8309 13.7646 21.3907C13.853 20.9506 13.594 20.5219 13.1775 20.3871L11.8834 20.1281C11.4468 20.0922 11.0434 20.3889 10.955 20.829ZM11.8003 1.75049C14.4996 1.75049 16.0632 2.69024 17.2708 4.28799C18.3908 5.76849 19.0452 7.54211 19.1564 9.38574L19.1704 9.71211C19.1704 9.71211 19.1852 10.3202 19.1852 10.3255C19.1852 10.567 18.9893 10.763 18.7477 10.763H15.96C16.0606 10.4384 16.1919 10.0691 16.4124 8.84149C16.7072 7.19649 15.7832 5.62586 14.4086 5.02999C13.2037 4.50761 11.8965 4.37549 10.4991 4.37549C8.98975 4.37549 7.74288 4.56974 6.76113 4.95736C5.25962 5.54974 4.25425 7.09936 4.59025 8.84674C4.77575 9.80924 4.95862 10.4751 5.06362 10.8277C5.32875 11.7132 6.0515 12.3809 6.94575 12.5795L8.21012 12.7772C8.82875 12.8717 9.45262 12.9216 10.0765 12.9391C10.0065 13.1106 9.94875 13.29 9.90588 13.4755L9.317 16.0121C8.70975 16.0121 8.17687 16.2659 7.80412 16.6701L7.51888 15.7855C7.33775 15.3865 6.88188 15.1791 6.45487 15.3165C6.02787 15.4547 5.77938 15.8896 5.86513 16.3192L6.71387 18.9521C7.00175 19.7134 8.06838 20.4037 8.59863 20.6059L8.7465 21.8685C7.84438 21.8405 7.602 21.6567 7.17413 21.3829C4.9735 19.9767 4.06875 19.0317 3.01962 17.5381C2.3205 16.5424 1.95212 16.0261 1.91537 15.9894C1.80425 14.8256 1.75 13.892 1.75 13.1876C1.75088 12.4832 1.778 11.3247 1.8305 9.71211C1.8795 7.75211 2.54362 5.85599 3.72925 4.28799C4.89388 2.74799 6.45575 1.75049 9.25663 1.75399L11.8003 1.75049ZM13.2685 13.7319C13.0865 13.7327 12.9132 13.8587 12.8328 14.0609L12.0269 17.5005H22.9731L22.1979 14.1519C22.1454 13.9287 21.9888 13.7747 21.8111 13.7397L13.2685 13.7319Z" fill="#1A1C1F"/>
</g>
<defs>
<clipPath id="clip0_2214_6810">
<rect width="28" height="28" fill="white"/>
</clipPath>
</defs>
</svg>

<svg xmlns="http://www.w3.org/2000/svg" width="28" height="28" fill="none"><g clip-path="url(#a)"><path fill="#1A1C1F" fill-rule="evenodd" d="M21.877 12.25c.866 0 1.473.583 1.731 1.422L24.5 17.5h1.183c.294 0 .567.234.567.506v.642c0 .293-.228.603-.567.602h-.73c.028.142.043.333.043.47q0 .136-.34 3.038a2.6 2.6 0 0 1-.154.635v1.982a.877.877 0 0 1-.876.875H23.1a.875.875 0 0 1-.875-.875v-.3a37.6 37.6 0 0 1-9.45 0v.3a.875.875 0 0 1-.875.875h-.525a.875.875 0 0 1-.875-.875v-1.98a2.7 2.7 0 0 1-.133-.478l-.348-2.979a2.2 2.2 0 0 1 .029-.687h-.73c-.324 0-.567-.282-.567-.604v-.584c0-.323.243-.563.567-.563h1.183l.855-3.687c.203-.865.917-1.499 1.77-1.563zM2.714 19.975c.867.969 1.895 1.816 3.487 2.861l.5.317c.331.186.68.301 1.174.37.385.029.745.027 1.12.044.007.024.01.049.018.073v1.735c0 .125.014.245.03.365a.438.438 0 0 1-.43.51H7a.875.875 0 0 1-.845-1.104 3.86 3.86 0 0 1-1.768-1.29 9.5 9.5 0 0 1-1.106-1.876q-.135-.313-.568-2.005m16.542.807-3.624.006a.88.88 0 0 0-.729.598l-.259 1.294a.864.864 0 0 0 .7.929.866.866 0 0 0 1.005-.587l.103-.49h2.087l.104.49a.875.875 0 0 0 1.704-.341l-.259-1.296a.88.88 0 0 0-.832-.603m3.861-.654-1.294.26a.875.875 0 0 0 .342 1.704l1.294-.26a.874.874 0 0 0-.341-1.704m-12.162.701c-.088.44.17.869.587 1.004l1.294.259a.875.875 0 0 0 .341-1.705l-1.294-.259a.875.875 0 0 0-.928.701M11.8 1.75c2.7 0 4.263.94 5.47 2.538a9.4 9.4 0 0 1 1.886 5.098l.014.326.015.614a.44.44 0 0 1-.437.437H15.96c.1-.325.232-.694.452-1.922.295-1.645-.629-3.215-2.003-3.811-1.205-.522-2.513-.655-3.91-.655q-2.265 0-3.738.582C5.26 5.55 4.254 7.1 4.591 8.847c.185.962.368 1.628.473 1.98a2.54 2.54 0 0 0 1.882 1.752l1.264.198c.619.095 1.243.145 1.866.162q-.105.258-.17.537l-.589 2.536a2.04 2.04 0 0 0-1.513.658l-.285-.885a.874.874 0 0 0-1.654.534l.849 2.633c.288.761 1.354 1.452 1.885 1.654l.147 1.262c-.902-.027-1.144-.211-1.572-.485-2.2-1.406-3.105-2.351-4.154-3.845q-1.05-1.494-1.105-1.549-.165-1.745-.165-2.801.001-1.057.08-3.476a9.4 9.4 0 0 1 1.9-5.424c1.164-1.54 2.726-2.538 5.527-2.534zm1.468 11.982c-.182 0-.355.127-.435.329l-.806 3.44h10.946l-.775-3.35c-.053-.222-.21-.376-.387-.411z" clip-rule="evenodd"/></g><defs><clipPath id="a"><path fill="#fff" d="M0 0h28v28H0z"/></clipPath></defs></svg>
